src/bright/hiso font bright_q.svg

<svg xmlns="http://www.w3.org/2000/svg" width="90" height="126" viewBox="0 0 90 126"><path fill="#000101" d="M36 9l-36 18v54l36 18 18 9v-18l18-9v-54l-36-18zm15 94.15l-11.65-5.82 11.65-5.83v11.65zm-15-7.5v-30.97l30.98 15.48-30.98 15.49zm0-34.32v-16.33l33-16.5v49.33l-33-16.5z"/></svg>

<svg xmlns="http://www.w3.org/2000/svg" width="90" height="126"><path fill="#000101" d="M36 9L0 27v54l36 18 18 9V90l18-9V27L36 9zm15 94.15l-11.65-5.82L51 91.5v11.65zm-15-7.5V64.68l30.98 15.48L36 95.65zm0-34.32V45l33-16.5v49.33l-33-16.5z"/></svg>
